envkey-assets/source/images/var-black.svg

<?xml version="1.0" encoding="UTF-8" standalone="no"?>
<svg width="47px" height="25px" viewBox="0 0 47 25" version="1.1" xmlns="http://www.w3.org/2000/svg" xmlns:xlink="http://www.w3.org/1999/xlink">
    <!-- Generator: Sketch 41.2 (35397) - http://www.bohemiancoding.com/sketch -->
    <title>x=y</title>
    <desc>Created with Sketch.</desc>
    <defs></defs>
    <g id="Page-1" stroke="none" stroke-width="1" fill="none" fill-rule="evenodd">
        <path d="M0.072,0.129 L4.4535,9.1335 L-0.0315,18 L4.35,18 C5.454,15.516 6.489,13.101 6.903,12.1695 L6.9375,12.1695 C7.317,13.17 8.0415,14.8605 9.3525,18 L13.941,18 L9.3525,8.547 L13.941,0.129 L9.594,0.129 C8.49,2.613 7.593,4.476 7.0755,5.6835 L7.041,5.6835 C6.627,4.752 5.9025,3.165 4.5915,0.129 L0.072,0.129 Z M15.252,11.4795 L15.252,13.7565 L29.9835,13.7565 L29.9835,11.4795 L15.252,11.4795 Z M15.252,4.9245 L15.252,7.2015 L29.9835,7.2015 L29.9835,4.9245 L15.252,4.9245 Z M31.881,0.129 L37.263,18.2415 C36.78,20.346 36.228,21.1395 34.6755,21.1395 C34.2615,21.1395 33.606,21.105 33.3645,21.0705 L33.3645,24.555 C33.882,24.6585 34.5375,24.693 34.986,24.693 C37.47,24.693 39.471,24.3825 40.989,18.7935 L46.1295,0.129 L41.9895,0.129 C40.782,5.166 39.609,10.3755 39.195,12.894 L39.1605,12.894 C38.9535,10.755 37.7115,5.8905 36.4005,0.129 L31.881,0.129 Z" id="x=y" fill="#000000"></path>
    </g>
</svg>

<svg width="47" height="25" viewBox="0 0 47 25" xmlns="http://www.w3.org/2000/svg"><title>x=y</title><path d="M.072.129l4.381 9.005L-.032 18H4.35c1.104-2.484 2.139-4.899 2.553-5.83h.035c.379 1 1.103 2.69 2.414 5.83h4.589L9.352 8.547 13.941.129H9.594C8.49 2.613 7.593 4.476 7.076 5.684H7.04C6.626 4.752 5.901 3.165 4.59.129H.072zm15.18 11.35v2.278h14.731V11.48H15.252zm0-6.554v2.277h14.731V4.925H15.252zM31.881.128l5.382 18.112c-.483 2.105-1.035 2.899-2.587 2.899-.415 0-1.07-.035-1.312-.07v3.485c.518.104 1.174.138 1.622.138 2.484 0 4.485-.31 6.003-5.9L46.129.13h-4.14c-1.207 5.037-2.38 10.247-2.794 12.765h-.035C38.954 10.756 37.712 5.892 36.4.13h-4.519z" fill-rule="evenodd"/></svg>
